svgs/thin/person-seat-reclined.svg

<svg xmlns="http://www.w3.org/2000/svg" viewBox="0 0 448 512"><!--! Font Awesome Pro 6.3.0 by @fontawesome - https://fontawesome.com License - https://fontawesome.com/license (Commercial License) Copyright 2023 Fonticons, Inc. --><path d="M280 416H152.6c-48.44 0-90.06-34.31-98.98-81.56L15.86 134.5c-.8125-4.344-5.094-7.25-9.344-6.406C2.175 128.1-.6848 133.2 .1433 137.5l37.73 199.9C48.22 392.2 96.47 432 152.6 432h127.4c4.422 0 7.1-3.594 7.1-8S284.4 416 280 416zM139.8 104c28.7 0 51.1-23.28 51.1-52S168.5 0 139.8 0S87.8 23.28 87.8 52S111.1 104 139.8 104zM139.8 16c19.84 0 35.1 16.16 35.1 36S159.6 88 139.8 88S103.8 71.84 103.8 52S119.1 16 139.8 16zM416 416h-13.43l-54.78-95.88C342.1 310.2 331.5 304 320 304H216l-11.63-64h67.58c17.64 0 31.1-14.36 31.1-32s-14.36-32-31.1-32H192.8L191.2 167.4c-4.144-22.85-23.92-39.45-47.03-39.45c-2.943-.002-5.926 .2734-8.924 .8457C122.8 131.1 111.8 138.1 104.5 148.7C97.24 159.2 94.48 171.1 96.78 184.6l26.19 144C127.1 351.4 146.1 368 170.2 368h131.3l54.78 95.88C361.9 473.8 372.5 480 383.1 480h32c17.64 0 31.1-14.36 31.1-32S433.6 416 416 416zM415.1 464h-31.1c-5.734 0-11.05-3.062-13.89-8.062L310.7 352H170.2c-15.17 0-28.64-10.81-31.45-26.28l-26.19-144C109.4 164.3 120.9 147.7 138.3 144.5c1.988-.3809 3.967-.5625 5.92-.5625c15.06 0 28.49 10.9 31.28 26.31L179.4 192h92.57c8.836 0 15.1 7.162 15.1 16c0 8.836-7.164 16-15.1 16H185.3l17.44 96h117.3c5.734 0 11.05 3.062 13.89 8.062L393.3 432h22.72c8.844 0 16 7.156 16 16S424.8 464 415.1 464z"/></svg>

<svg xmlns="http://www.w3.org/2000/svg" viewBox="0 0 448 512"><!-- Font Awesome Pro 6.0.0-alpha2 by @fontawesome - https://fontawesome.com License - https://fontawesome.com/license (Commercial License) --><path d="M280 416H152.579C104.142 416 62.517 381.688 53.596 334.438L15.861 134.531C15.049 130.188 10.768 127.281 6.518 128.125C2.174 128.969 -0.685 133.156 0.143 137.469L37.877 337.375C48.221 392.219 96.47 432 152.579 432H280C284.422 432 288 428.406 288 424S284.422 416 280 416ZM139.796 104C168.499 104 191.796 80.719 191.796 52S168.53 0 139.796 0S87.796 23.281 87.796 52S111.093 104 139.796 104ZM139.796 16C159.64 16 175.796 32.156 175.796 52S159.64 88 139.796 88S103.796 71.844 103.796 52S119.952 16 139.796 16ZM415.999 416H402.566L347.783 320.125C342.133 310.189 331.48 304 320 304H216.049L204.423 240H272C289.645 240 304 225.645 304 208S289.645 176 272 176H192.788L191.227 167.418C187.083 144.564 167.306 127.969 144.202 127.969C141.259 127.967 138.277 128.242 135.279 128.814C122.81 131.078 111.843 138.143 104.542 148.682C97.242 159.221 94.484 171.969 96.775 184.578L122.962 328.582C127.115 351.422 146.964 368 170.157 368H301.434L356.216 463.875C361.867 473.811 372.519 480 383.999 480H415.999C433.644 480 447.999 465.645 447.999 448S433.644 416 415.999 416ZM415.999 464H383.999C378.265 464 372.953 460.938 370.109 455.938L310.719 352C310.719 352 171.476 352 170.157 352C154.985 352 141.517 341.188 138.704 325.719L112.517 181.719C109.361 164.344 120.892 147.688 138.282 144.531C140.271 144.15 142.249 143.969 144.202 143.969C159.267 143.969 172.69 154.871 175.485 170.281L179.434 192H272C280.836 192 288 199.162 288 208C288 216.836 280.836 224 272 224H185.255L202.694 320H320C325.734 320 331.047 323.062 333.89 328.062L393.281 432H415.999C424.843 432 431.999 439.156 431.999 448S424.843 464 415.999 464Z"/></svg>
